svg/charges/food/ham.svg

<?xml version="1.0" encoding="UTF-8" standalone="no"?>
<svg
   xmlns:dc="http://purl.org/dc/elements/1.1/"
   xmlns:cc="http://creativecommons.org/ns#"
   xmlns:rdf="http://www.w3.org/1999/02/22-rdf-syntax-ns#"
   xmlns:svg="http://www.w3.org/2000/svg"
   xmlns="http://www.w3.org/2000/svg"
   version="1.1"
   width="351"
   height="117"
   id="svg54">
  <defs
     id="defs31" />
  <metadata
     id="metadata13"> Produced by OmniGraffle 7.11.5 
    <dc:date>2021-03-13 23:03:25 +0000</dc:date>
<rdf:RDF>
  <cc:Work
     rdf:about="">
    <dc:format>image/svg+xml</dc:format>
    <dc:type
       rdf:resource="http://purl.org/dc/dcmitype/StillImage" />
    <dc:title></dc:title>
    <dc:creator>
      <cc:Agent>
        <dc:title>http://heraldicart.org/ham/#ham</dc:title>
      </cc:Agent>
    </dc:creator>
  </cc:Work>
</rdf:RDF>
</metadata>
  <g
     id="Ham"
     stroke="none"
     stroke-dasharray="none"
     stroke-opacity="1"
     fill-opacity="1"
     transform="translate(-36.094664,-76.493814)">
    <title
       id="title15">Ham</title>
    <g
       id="Ham: Layer 2">
      <title
         id="title17">Layer 2</title>
      <g
         id="Group_974">
        <g
           id="Graphic_982"
           transform="translate(0.10125)">
          <path
             d="m 38.3747,139.459 c 1.2942,28.473 19.4132,50.475 51.1215,50.475 31.7088,0 79.8168,-8.279 127.4808,-29.767 37.532,-16.825 67.946,-39.474 88.653,-39.474 20.708,0 22.002,14.237 38.18,14.237 16.177,0 16.177,-6.471 16.177,-6.471 0,0 4.53,4.529 5.824,3.882 1.295,-0.647 3.236,-3.235 3.236,-3.235 0,0 6.471,-1.942 9.707,-3.236 3.235,-1.294 6.471,-1.941 5.824,-3.235 -0.648,-1.295 -8.413,-7.119 -12.295,-7.119 -3.883,0 -12.943,-1.294 -16.178,-2.588 -3.236,-1.294 -17.472,-3.236 -20.061,-4.53 -2.588,-1.294 -5.176,-3.235 -9.059,-2.588 -3.883,0.647 -12.868,-0.345 -16.825,-0.647 -3.957,-0.302 -4.53,-1.942 -17.472,-1.294 -12.942,0.647 -53.71,4.529 -66.005,2.588 -12.295,-1.941 -25.884,-3.236 -31.061,-7.7654 -5.177,-4.5297 -14.884,-5.1768 -14.884,-5.1768 0,0 -9.706,-8.4124 -25.884,-12.2951 -16.178,-3.8826 -56.9454,1.9414 -69.2404,9.0595 -12.2951,7.1182 -48.5331,20.7078 -47.2389,49.1798 z"
             id="path19"
             style="fill:#ffff00;stroke:#808080;stroke-width:2" />
        </g>
        <g
           id="Graphic_981"
           style="stroke:#808080">
          <path
             d="m 360.53254,128.98946 c 1.18196,1.12291 4.32526,3.96233 5.36803,3.44094 1.29423,-0.64711 3.23553,-3.23555 3.23553,-3.23555 0,0 6.4711,-1.94132 9.70664,-3.23554 3.23556,-1.29421 6.47106,-1.94132 5.82396,-3.23554 -0.6471,-1.29422 -8.4124,-7.11819 -12.29505,-7.11819 -1.86429,0 -4.92215,-0.29838 -7.95569,-0.75188 1.28824,2.09202 2.0201,3.96582 1.39549,5.83963 -0.89865,2.69593 -4.11302,5.797 -5.7227,7.7653 z"
             id="path24"
             style="fill:#ffff00" />
        </g>
        <g
           id="Line_980"
           style="fill:none;stroke:#808080">
          <path
             d="m 234.44848,143.34212 c 7.7653,-7.11819 30.80992,-21.12868 49.42282,-21.53692"
             stroke="#000000"
             stroke-linecap="round"
             stroke-linejoin="round"
             stroke-width="1"
             id="path29" />
        </g>
        <g
           id="Line_979"
           style="stroke:#808080">
          <path
             d="m 341.86845,114.22225 c 3.88265,5.17686 8.27545,5.88828 11.29135,11.5625"
             stroke-linecap="round"
             stroke-linejoin="round"
             stroke-width="1"
             id="path32"
             stroke="#808080" />
        </g>
        <g
           id="Graphic_976">
          <path
             d="m 95.66214,189.8742 c 25.82356,-6.57727 46.25964,-38.74086 44.95564,-64.004 -1.28063,-24.81032 -26.07299,-43.91437 -36.88517,-41.41493 -8.48346,1.77538 -13.92284,3.53531 -18.02992,5.91309 -12.29505,7.11819 -48.533117,20.70746 -47.2389,49.18023 1.294216,28.47276 19.41325,50.47444 51.12155,50.47444 1.93078,0 3.95994,-0.0504 6.0768,-0.14883 z"
             stroke="black"
             stroke-linecap="round"
             stroke-linejoin="round"
             stroke-width="2"
             id="path43"
             style="fill:#ffffff;stroke:#808080" />
          <path
             d="m 94.0994,183.702 c 21.8956,-5.689 39.2236,-33.51 38.1176,-55.362 -1.086,-21.46 -22.107,-37.9843 -31.275,-35.8223 -7.1927,1.5356 -11.8048,3.0576 -15.2871,5.1146 -10.425,6.1567 -41.1511,17.9107 -40.0537,42.5397 1.0973,24.628 16.4604,43.659 43.3457,43.659 1.6371,0 3.3577,-0.04 5.1525,-0.129 z"
             stroke="black"
             stroke-linecap="round"
             stroke-linejoin="round"
             stroke-width="1.71278"
             id="path858"
             style="fill:#ffff00;stroke:#808080" />
          <path
             d="m 94.0994,183.702 c 21.8956,-5.689 39.2236,-33.51 38.1176,-55.362 -1.086,-21.46 -22.107,-37.9843 -31.275,-35.8223 -7.1927,1.5356 -11.8048,3.0576 -15.2871,5.1146 -10.425,6.1567 -41.1511,17.9107 -40.0537,42.5397 1.0973,24.628 16.4604,43.659 43.3457,43.659 1.6371,0 3.3577,-0.04 5.1525,-0.129 z"
             stroke="black"
             stroke-linecap="round"
             stroke-linejoin="round"
             stroke-width="1.71278"
             id="path860"
             style="opacity:0.5;fill:#666666;stroke:#808080" />
        </g>
        <g
           id="Graphic_975">
          <path
             d="m 78.79571,132.29031 c 1.94132,-1.94132 1.94132,0.64711 5.17687,-1.29421 3.23554,-1.94133 5.17686,-2.58844 7.11819,-0.64711 1.94132,1.94132 0.6471,5.82397 -0.64711,9.05951 -1.29422,3.23554 -4.52976,3.23554 -6.47108,3.23554 -1.94133,0 -1.29422,3.88266 -5.17687,1.29422 -3.88265,-2.58843 -1.941325,-9.70663 0,-11.64795 z"
             id="path46" />
          <path
             d="m 78.79571,132.29031 c 1.94132,-1.94132 1.94132,0.64711 5.17687,-1.29421 3.23554,-1.94133 5.17686,-2.58844 7.11819,-0.64711 1.94132,1.94132 0.6471,5.82397 -0.64711,9.05951 -1.29422,3.23554 -4.52976,3.23554 -6.47108,3.23554 -1.94133,0 -1.29422,3.88266 -5.17687,1.29422 -3.88265,-2.58843 -1.941325,-9.70663 0,-11.64795 z"
             stroke="black"
             stroke-linecap="round"
             stroke-linejoin="round"
             stroke-width="2"
             id="path48"
             style="fill:#e6e6e6;stroke:#808080" />
        </g>
      </g>
    </g>
  </g>
  <circle
     style="fill:#3250b0;stroke-width:3;stroke-linecap:round;stroke-linejoin:round;stroke-miterlimit:3"
     id="hold-point"
     cx="265.16351"
     cy="36.15876"
     r="13.664975" />
</svg>

<?xml version="1.0" encoding="UTF-8" standalone="no"?>
<svg
   xmlns:dc="http://purl.org/dc/elements/1.1/"
   xmlns:cc="http://creativecommons.org/ns#"
   xmlns:rdf="http://www.w3.org/1999/02/22-rdf-syntax-ns#"
   xmlns:svg="http://www.w3.org/2000/svg"
   xmlns="http://www.w3.org/2000/svg"
   version="1.1"
   viewBox="36 76.5 351 117"
   width="351"
   height="117"
   id="svg54">
  <defs
     id="defs31" />
  <metadata
     id="metadata13"> Produced by OmniGraffle 7.11.5 
    <dc:date>2021-03-13 23:03:25 +0000</dc:date>
<rdf:RDF>
  <cc:Work
     rdf:about="">
    <dc:format>image/svg+xml</dc:format>
    <dc:type
       rdf:resource="http://purl.org/dc/dcmitype/StillImage" />
    <dc:title></dc:title>
    <dc:creator>
      <cc:Agent>
        <dc:title>http://heraldicart.org/ham/#ham</dc:title>
      </cc:Agent>
    </dc:creator>
  </cc:Work>
</rdf:RDF>
</metadata>
  <g
     id="Ham"
     stroke="none"
     stroke-dasharray="none"
     stroke-opacity="1"
     fill-opacity="1">
    <title
       id="title15">Ham</title>
    <g
       id="Ham: Layer 2">
      <title
         id="title17">Layer 2</title>
      <g
         id="Group_974">
        <g
           id="Graphic_982"
           transform="translate(0.10125)">
          <path
             d="m 38.3747,139.459 c 1.2942,28.473 19.4132,50.475 51.1215,50.475 31.7088,0 79.8168,-8.279 127.4808,-29.767 37.532,-16.825 67.946,-39.474 88.653,-39.474 20.708,0 22.002,14.237 38.18,14.237 16.177,0 16.177,-6.471 16.177,-6.471 0,0 4.53,4.529 5.824,3.882 1.295,-0.647 3.236,-3.235 3.236,-3.235 0,0 6.471,-1.942 9.707,-3.236 3.235,-1.294 6.471,-1.941 5.824,-3.235 -0.648,-1.295 -8.413,-7.119 -12.295,-7.119 -3.883,0 -12.943,-1.294 -16.178,-2.588 -3.236,-1.294 -17.472,-3.236 -20.061,-4.53 -2.588,-1.294 -5.176,-3.235 -9.059,-2.588 -3.883,0.647 -12.868,-0.345 -16.825,-0.647 -3.957,-0.302 -4.53,-1.942 -17.472,-1.294 -12.942,0.647 -53.71,4.529 -66.005,2.588 -12.295,-1.941 -25.884,-3.236 -31.061,-7.7654 -5.177,-4.5297 -14.884,-5.1768 -14.884,-5.1768 0,0 -9.706,-8.4124 -25.884,-12.2951 -16.178,-3.8826 -56.9454,1.9414 -69.2404,9.0595 -12.2951,7.1182 -48.5331,20.7078 -47.2389,49.1798 z"
             id="path19"
             style="fill:#ffff00;stroke:#808080;stroke-width:2" />
        </g>
        <g
           id="Graphic_981"
           style="stroke:#808080">
          <path
             d="M 360.53254 128.98946 C 361.7145 130.11237 364.8578 132.95179 365.90057 132.4304 C 367.1948 131.78329 369.1361 129.19485 369.1361 129.19485 C 369.1361 129.19485 375.6072 127.25353 378.84274 125.95931 C 382.0783 124.6651 385.3138 124.01799 384.6667 122.72377 C 384.0196 121.42955 376.2543 115.60558 372.37165 115.60558 C 370.50736 115.60558 367.4495 115.3072 364.41596 114.8537 C 365.7042 116.94572 366.43606 118.81952 365.81145 120.69333 C 364.9128 123.38926 361.69843 126.49033 360.08875 128.45863 Z"
             id="path24"
             style="fill:#ffff00" />
        </g>
        <g
           id="Line_980"
           style="stroke:#808080;fill:none">
          <path
             d="M 234.44848 143.34212 C 242.21378 136.22393 265.2584 122.21344 283.8713 121.8052"
             stroke="black"
             stroke-linecap="round"
             stroke-linejoin="round"
             stroke-width="1"
             id="path29" />
        </g>
        <g
           id="Line_979"
           style="stroke:#808080">
          <path
             d="M 341.86845 114.22225 C 345.7511 119.39911 350.1439 120.11053 353.1598 125.78475"
             stroke-linecap="round"
             stroke-linejoin="round"
             stroke-width="1"
             id="path32"
             stroke="gray" />
        </g>
        <g
           id="Graphic_976">
          <path
             d="M 95.66214 189.8742 C 121.4857 183.29693 141.92178 151.13334 140.61778 125.8702 C 139.33715 101.05988 114.54479 81.95583 103.73261 84.45527 C 95.24915 86.23065 89.80977 87.99058 85.70269 90.36836 C 73.40764 97.48655 37.169573 111.07582 38.46379 139.54859 C 39.758006 168.02135 57.87704 190.02303 89.58534 190.02303 C 91.51612 190.02303 93.54528 189.97264 95.66214 189.8742 Z"
             stroke="black"
             stroke-linecap="round"
             stroke-linejoin="round"
             stroke-width="2"
             id="path43"
             style="stroke:#808080;fill:#ffffff" />
          <path
             d="m 94.0994,183.702 c 21.8956,-5.689 39.2236,-33.51 38.1176,-55.362 -1.086,-21.46 -22.107,-37.9843 -31.275,-35.8223 -7.1927,1.5356 -11.8048,3.0576 -15.2871,5.1146 -10.425,6.1567 -41.1511,17.9107 -40.0537,42.5397 1.0973,24.628 16.4604,43.659 43.3457,43.659 1.6371,0 3.3577,-0.04 5.1525,-0.129 z"
             stroke="black"
             stroke-linecap="round"
             stroke-linejoin="round"
             stroke-width="1.71278"
             id="path858"
             style="fill:#ffff00;stroke:#808080" />
          <path
             d="m 94.0994,183.702 c 21.8956,-5.689 39.2236,-33.51 38.1176,-55.362 -1.086,-21.46 -22.107,-37.9843 -31.275,-35.8223 -7.1927,1.5356 -11.8048,3.0576 -15.2871,5.1146 -10.425,6.1567 -41.1511,17.9107 -40.0537,42.5397 1.0973,24.628 16.4604,43.659 43.3457,43.659 1.6371,0 3.3577,-0.04 5.1525,-0.129 z"
             stroke="black"
             stroke-linecap="round"
             stroke-linejoin="round"
             stroke-width="1.71278"
             id="path860"
             style="fill:#666666;stroke:#808080;opacity:0.5" />
        </g>
        <g
           id="Graphic_975">
          <path
             d="M 78.79571 132.29031 C 80.73703 130.34899 80.73703 132.93742 83.97258 130.9961 C 87.20812 129.05477 89.14944 128.40766 91.09077 130.34899 C 93.03209 132.29031 91.73787 136.17296 90.44366 139.4085 C 89.14944 142.64404 85.9139 142.64404 83.97258 142.64404 C 82.03125 142.64404 82.67836 146.5267 78.79571 143.93826 C 74.91306 141.34983 76.854385 134.23163 78.79571 132.29031 Z"
             id="path46" />
          <path
             d="M 78.79571 132.29031 C 80.73703 130.34899 80.73703 132.93742 83.97258 130.9961 C 87.20812 129.05477 89.14944 128.40766 91.09077 130.34899 C 93.03209 132.29031 91.73787 136.17296 90.44366 139.4085 C 89.14944 142.64404 85.9139 142.64404 83.97258 142.64404 C 82.03125 142.64404 82.67836 146.5267 78.79571 143.93826 C 74.91306 141.34983 76.854385 134.23163 78.79571 132.29031 Z"
             stroke="black"
             stroke-linecap="round"
             stroke-linejoin="round"
             stroke-width="2"
             id="path48"
             style="stroke:#808080;fill:#e6e6e6" />
        </g>
      </g>
    </g>
  </g>
</svg>
